svg/m/GT.svg

<svg width="20" height="15" viewBox="0 0 20 15" fill="none" xmlns="http://www.w3.org/2000/svg">
<g clip-path="url(#clip0_270_60909)">
<rect width="20" height="15" fill="white"/>
<path fill-rule="evenodd" clip-rule="evenodd" d="M14 0H20V15H14V0Z" fill="#58A5FF"/>
<path fill-rule="evenodd" clip-rule="evenodd" d="M0 0H6V15H0V0Z" fill="#58A5FF"/>
<path fill-rule="evenodd" clip-rule="evenodd" d="M6 0H14V15H6V0Z" fill="white"/>
<path d="M7.97782 10.6484L7.52374 10.2189L12.3284 5.13884L12.7825 5.5683L7.97782 10.6484Z" fill="#C6C6C6"/>
<path fill-rule="evenodd" clip-rule="evenodd" d="M8.11548 5.0659C8.11548 5.0659 6.57742 5.99414 6.57742 8.32112C6.57742 10.6481 10.322 10.9629 10.322 10.9629C10.322 10.9629 8.08112 9.59613 7.78784 8.61763C7.49455 7.63913 8.11548 5.0659 8.11548 5.0659Z" fill="#5AB92D"/>
<path fill-rule="evenodd" clip-rule="evenodd" d="M11.9089 5.0659C11.9089 5.0659 13.447 5.99414 13.447 8.32112C13.447 10.6481 9.70243 10.9629 9.70243 10.9629C9.70243 10.9629 12.0573 9.61241 12.3873 8.32112C12.7174 7.02983 11.9089 5.0659 11.9089 5.0659Z" fill="#5AB92D"/>
<path d="M9.2548 4.74973L9.87724 4.80622C9.85677 5.03174 9.97996 5.26128 10.2846 5.50764C11.265 6.3006 11.7919 7.28975 11.379 8.41378C11.0793 9.22942 10.6723 9.9181 10.1573 10.4775L9.69751 10.0541C10.1548 9.55744 10.5199 8.93961 10.7923 8.19825C11.0889 7.39093 10.6875 6.63734 9.89153 5.99359C9.43803 5.6268 9.21321 5.20791 9.2548 4.74973Z" fill="#5AB92D"/>
<path fill-rule="evenodd" clip-rule="evenodd" d="M8.85864 6.13058L9.51443 7.98444H9.03238C9.03238 7.98444 8.85864 8.56948 9.18654 8.56948C9.51443 8.56948 11.2042 8.56948 11.2042 8.56948C11.2042 8.56948 11.4239 8.42278 11.314 7.98444C11.2042 7.54609 10.6492 6.33601 10.6492 6.33601C10.6492 6.33601 10.8863 6.13518 10.8863 5.98632C10.8863 5.83746 10.6492 5.82106 10.6492 5.82106H9.15225C8.96118 5.85409 8.85864 6.13058 8.85864 6.13058Z" fill="#EFE298"/>
</g>
<defs>
<clipPath id="clip0_270_60909">
<rect width="20" height="15" fill="white"/>
</clipPath>
</defs>
</svg>

<svg width="20" height="15" fill="none" xmlns="http://www.w3.org/2000/svg">
  <mask id="a" maskUnits="userSpaceOnUse" x="0" y="0" width="20" height="15">
    <path fill="#fff" d="M0 0h20v15H0z"/>
  </mask>
  <g mask="url(#a)">
    <path fill-rule="evenodd" clip-rule="evenodd" d="M14 0h6v15h-6V0zM0 0h6v15H0V0z" fill="#58A5FF"/>
    <path fill-rule="evenodd" clip-rule="evenodd" d="M6 0h8v15H6V0z" fill="#fff"/>
    <path d="M7.978 10.648l-.454-.43 4.804-5.08.455.43-4.805 5.08z" fill="#C6C6C6"/>
    <path fill-rule="evenodd" clip-rule="evenodd" d="M8.115 5.066s-1.538.928-1.538 3.255 3.745 2.642 3.745 2.642-2.24-1.367-2.534-2.345c-.293-.979.327-3.552.327-3.552z" fill="#5AB92D"/>
    <path fill-rule="evenodd" clip-rule="evenodd" d="M11.909 5.066s1.538.928 1.538 3.255-3.745 2.642-3.745 2.642 2.355-1.35 2.685-2.642c.33-1.291-.478-3.255-.478-3.255z" fill="#5AB92D"/>
    <path d="M9.255 4.75l.622.056c-.02.226.103.455.408.702.98.793 1.507 1.782 1.094 2.906-.3.815-.707 1.504-1.222 2.063l-.46-.423c.458-.497.823-1.114 1.095-1.856.297-.807-.104-1.56-.9-2.204-.454-.367-.679-.786-.637-1.244z" fill="#5AB92D"/>
    <path fill-rule="evenodd" clip-rule="evenodd" d="M8.859 6.13l.655 1.854h-.482s-.173.585.155.585h2.017s.22-.146.11-.585c-.11-.438-.665-1.648-.665-1.648s.237-.2.237-.35c0-.149-.237-.165-.237-.165H9.152c-.19.033-.293.31-.293.31z" fill="#EFE298"/>
  </g>
</svg>
